src/assets/Devices/Generic Front-dpad.svg

<svg width="870" height="614" viewBox="0 0 870 614" fill="none" xmlns="http://www.w3.org/2000/svg">
<g opacity="0.2">
<circle cx="217.749" cy="174.458" r="79.5791" stroke="white" stroke-width="0.941764"/>
<circle cx="217.751" cy="174.458" r="63.5691" stroke="white" stroke-width="0.941764"/>
<circle cx="217.75" cy="174.459" r="50.297" stroke="white" stroke-width="3"/>
<circle cx="217.75" cy="174.459" r="30.6073" stroke="white" stroke-width="0.941764"/>
</g>
<g opacity="0.2">
<circle cx="528.53" cy="315.724" r="79.5791" stroke="white" stroke-width="0.941764"/>
<circle cx="528.532" cy="315.724" r="63.5691" stroke="white" stroke-width="0.941764"/>
<circle cx="528.531" cy="315.723" r="50.297" stroke="white" stroke-width="3"/>
<circle cx="528.531" cy="315.723" r="30.6073" stroke="white" stroke-width="0.941764"/>
</g>
<circle cx="326.996" cy="316.664" r="71.1032" stroke="white" stroke-width="0.941764"/>
<circle cx="326.998" cy="316.666" r="56.035" stroke="white" stroke-width="0.941764"/>
<path d="M377.898 334.56C379.519 334.56 380.97 333.526 381.408 331.965C382.774 327.099 383.504 321.968 383.504 316.666C383.504 311.364 382.774 306.233 381.408 301.367C380.97 299.806 379.519 298.772 377.898 298.772H346.775C345.735 298.772 344.892 297.929 344.892 296.889V265.766C344.892 264.145 343.858 262.694 342.297 262.256C337.431 260.89 332.3 260.16 326.998 260.16C321.696 260.16 316.565 260.89 311.699 262.256C310.138 262.694 309.105 264.145 309.105 265.766V296.889C309.105 297.929 308.261 298.773 307.221 298.773H276.098C274.477 298.773 273.026 299.806 272.588 301.367C271.222 306.233 270.492 311.364 270.492 316.666C270.492 321.968 271.222 327.099 272.588 331.965C273.026 333.526 274.477 334.56 276.098 334.56H307.221C308.261 334.56 309.105 335.403 309.105 336.443V367.566C309.105 369.187 310.138 370.638 311.699 371.076C316.565 372.442 321.696 373.172 326.998 373.172C332.3 373.172 337.431 372.442 342.297 371.076C343.858 370.638 344.892 369.187 344.892 367.566V336.443C344.892 335.403 345.735 334.56 346.775 334.56H377.898Z" stroke="white" stroke-width="6"/>
<g opacity="0.2">
<circle cx="660.378" cy="117.011" r="26.8403" stroke="white" stroke-width="2.82529"/>
<circle cx="660.378" cy="231.907" r="26.8403" stroke="white" stroke-width="2.82529"/>
<circle cx="602.933" cy="173.517" r="26.8403" stroke="white" stroke-width="2.82529"/>
<circle cx="716.886" cy="173.517" r="26.8403" stroke="white" stroke-width="2.82529"/>
<path d="M656.602 133.022V121.833L647.031 103.562H653.061L658.665 114.59C658.841 114.954 658.996 115.291 659.131 115.601C659.279 115.912 659.421 116.242 659.556 116.593H659.657C659.792 116.242 659.927 115.912 660.061 115.601C660.21 115.291 660.378 114.954 660.567 114.59L666.172 103.562H671.594L662.125 121.752V133.022H656.602Z" fill="white"/>
<path d="M590.484 188.585L600.399 171.71H601.37L608.391 159.125H613.732L604.445 175.251H603.515L595.907 188.585H590.484ZM590.97 159.125H597.08L604.243 171.69H604.283L614.218 188.585H608.067L600.399 175.251H600.358L590.97 159.125Z" fill="white"/>
<path d="M646.891 246.032L656.886 216.512H662.895L672.87 246.032H667.265L660.406 224.645C660.245 224.133 660.11 223.674 660.002 223.27C659.894 222.851 659.793 222.447 659.698 222.056H659.597C659.503 222.447 659.401 222.851 659.294 223.27C659.186 223.674 659.051 224.133 658.889 224.645L652.151 246.032H646.891ZM652.07 239.254L653.122 235.329H666.375L667.468 239.254H652.07Z" fill="white"/>
<path d="M707.191 188.585V159.125H717.733C720.66 159.125 722.899 159.759 724.45 161.027C726.002 162.295 726.777 164.19 726.777 166.712C726.777 168.372 726.406 169.747 725.664 170.84C724.936 171.919 724.005 172.661 722.872 173.066V173.147C724.275 173.524 725.428 174.313 726.332 175.514C727.236 176.701 727.688 178.299 727.688 180.309C727.688 182.926 726.838 184.963 725.138 186.42C723.452 187.863 721.166 188.585 718.279 188.585H707.191ZM712.573 184.68H717.531C719.122 184.68 720.296 184.255 721.051 183.405C721.807 182.555 722.184 181.402 722.184 179.945C722.184 178.475 721.807 177.308 721.051 176.445C720.296 175.568 719.122 175.129 717.531 175.129H712.573V184.68ZM712.573 171.71H717.005C718.583 171.71 719.723 171.326 720.424 170.557C721.125 169.788 721.476 168.716 721.476 167.34C721.476 165.964 721.125 164.918 720.424 164.204C719.723 163.489 718.583 163.124 717.005 163.111H712.573V171.71Z" fill="white"/>
</g>
<path opacity="0.2" d="M299.797 87.1626C299.797 78.3689 306.926 71.2402 315.719 71.2402V71.2402C324.513 71.2402 331.642 78.3689 331.642 87.1626V109.572C331.642 118.366 324.513 125.494 315.719 125.494V125.494C306.926 125.494 299.797 118.366 299.797 109.572V87.1626Z" stroke="white"/>
<path opacity="0.2" d="M545.305 87.7523C545.305 78.6329 552.697 71.2402 561.817 71.2402V71.2402C570.936 71.2402 578.329 78.6329 578.329 87.7523V108.982C578.329 118.102 570.936 125.494 561.817 125.494V125.494C552.697 125.494 545.305 118.102 545.305 108.982V87.7523Z" stroke="white"/>
<path opacity="0.2" d="M68.9705 117.953C88.7475 72.7483 111.35 49.6305 156.555 46.3789C349.28 32.5159 521.306 32.6066 714.039 46.3789C754.535 49.2726 781.846 72.7483 801.623 117.953C821.4 163.158 866.625 343.035 866.625 461.697C866.625 580.359 800.701 604.845 793.167 606.729C792.231 606.963 791.252 607.269 790.23 607.589C788.73 608.059 787.139 608.557 785.464 608.894C784.548 609.375 783.507 609.74 782.326 609.969C765.374 613.265 722.053 589.721 698.038 559.585C689.424 548.776 684.601 534.176 680.183 520.801C677.303 512.081 674.594 503.882 671.12 497.594C665.064 486.635 660.246 477.914 656.6 473.884C647.653 463.996 625.993 443.748 598.211 443.748H272.36C244.578 443.748 222.918 463.996 213.971 473.884C210.325 477.914 205.507 486.635 199.451 497.594C196.307 503.285 192.828 511.503 189.007 520.53C182.131 536.775 174.146 555.641 164.999 567.119C140.984 597.255 105.197 613.265 88.2454 609.969C87.0584 609.738 86.0118 609.371 85.0929 608.887C83.4313 608.55 81.8529 608.055 80.3634 607.589C79.342 607.269 78.3624 606.963 77.4264 606.729C69.8923 604.845 3.96875 580.359 3.96875 461.697C3.96875 343.035 49.1934 163.158 68.9705 117.953Z" stroke="white" stroke-width="6"/>
<g opacity="0.2">
<path d="M271.798 22.5129C280.624 30.2895 290.712 37.2666 310.888 37.8259C339.097 37.03 366.298 36.5127 393.152 36.2566C315.9 37.1477 238.079 40.515 156.554 46.3792C128.224 48.417 108.771 58.2571 93.3281 76.4463C110.234 45.4969 131.279 29.2891 166.893 26.5873C182.375 25.4128 196.551 23.7535 210.474 22.1237C226.722 20.2218 242.625 18.3603 259.856 17.3569C262.702 17.1912 265.622 18.1169 267.949 19.7628C268.294 20.0066 268.64 20.2508 268.976 20.4877C270.382 21.4806 271.608 22.3454 271.798 22.5129Z" stroke="white" stroke-width="2"/>
<path d="M778.392 79.0696C760.319 46.3223 736.501 29.0593 703.698 26.5873C688.177 25.4175 673.967 23.7587 660.009 22.1293C643.789 20.2358 627.908 18.382 610.705 17.3816C607.863 17.2163 604.946 18.1388 602.62 19.7816C602.284 20.019 601.947 20.2568 601.619 20.4878C600.211 21.4811 598.982 22.3476 598.794 22.5129C589.967 30.2895 577.778 37.3281 559.704 37.8259C536.371 37.2125 513.729 36.7532 491.404 36.458C564.077 37.5916 637.422 40.9043 714.038 46.3792C740.648 48.2807 761.565 59.069 778.392 79.0696Z" stroke="white" stroke-width="2"/>
</g>
<g opacity="0.2">
<rect x="312.472" y="97.8592" width="11.037" height="7.42558" stroke="white" stroke-width="1.58365"/>
<path fill-rule="evenodd" clip-rule="evenodd" d="M307.584 93.5837H317.037V95.9415H318.621V93.5837V92H317.037H307.584H306V93.5837V99.4256V101.009H307.584H310.417V99.4256H307.584V93.5837Z" fill="white"/>
</g>
<g opacity="0.2">
<path fill-rule="evenodd" clip-rule="evenodd" d="M554 93H569V94.7143H554V93ZM554 98.1429H569V99.8571H554V98.1429ZM569 103.286H554V105H569V103.286Z" fill="white"/>
</g>
</svg>

<svg width="870" height="614" fill="none" xmlns="http://www.w3.org/2000/svg"><g opacity=".2" stroke="#fff"><circle cx="217.75" cy="174.458" r="79.579" stroke-width=".942"/><circle cx="217.75" cy="174.458" r="63.569" stroke-width=".942"/><circle cx="217.75" cy="174.459" r="50.297" stroke-width="3"/><circle cx="217.75" cy="174.459" r="30.607" stroke-width=".942"/></g><g opacity=".2" stroke="#fff"><circle cx="528.532" cy="315.724" r="79.579" stroke-width=".942"/><circle cx="528.532" cy="315.724" r="63.569" stroke-width=".942"/><circle cx="528.533" cy="315.723" r="50.297" stroke-width="3"/><circle cx="528.533" cy="315.723" r="30.607" stroke-width=".942"/></g><circle cx="326.995" cy="316.664" r="71.103" stroke="#fff" stroke-width=".942"/><circle cx="326.995" cy="316.666" r="56.035" stroke="#fff" stroke-width=".942"/><path d="M377.895 334.56c1.621 0 3.073-1.034 3.511-2.595a56.566 56.566 0 0 0 2.095-15.299c0-5.302-.73-10.433-2.095-15.299-.438-1.561-1.89-2.595-3.511-2.595h-31.123a1.883 1.883 0 0 1-1.883-1.883v-31.123c0-1.621-1.034-3.072-2.595-3.51a56.527 56.527 0 0 0-15.299-2.096c-5.302 0-10.433.73-15.299 2.096-1.561.438-2.594 1.889-2.594 3.51v31.123c0 1.04-.844 1.884-1.884 1.884h-31.122c-1.622 0-3.073 1.033-3.511 2.594a56.527 56.527 0 0 0-2.096 15.299c0 5.302.73 10.433 2.096 15.299.438 1.561 1.889 2.595 3.511 2.595h31.122c1.04 0 1.884.843 1.884 1.883v31.123c0 1.621 1.033 3.072 2.594 3.51a56.527 56.527 0 0 0 15.299 2.096c5.302 0 10.433-.73 15.299-2.096 1.561-.438 2.595-1.889 2.595-3.51v-31.123c0-1.04.843-1.883 1.883-1.883h31.123Z" stroke="#fff" stroke-width="6"/><g opacity=".2"><circle cx="660.38" cy="117.011" r="26.84" stroke="#fff" stroke-width="2.825"/><circle cx="660.38" cy="231.907" r="26.84" stroke="#fff" stroke-width="2.825"/><circle cx="602.933" cy="173.517" r="26.84" stroke="#fff" stroke-width="2.825"/><circle cx="716.886" cy="173.517" r="26.84" stroke="#fff" stroke-width="2.825"/><path d="M656.604 133.022v-11.189l-9.571-18.271h6.03l5.604 11.028c.176.364.331.701.466 1.011.148.311.29.641.425.992h.101c.135-.351.27-.681.404-.992.149-.31.317-.647.506-1.011l5.605-11.028h5.422l-9.469 18.19v11.27h-5.523Zm-66.118 55.563 9.915-16.875h.971l7.021-12.585h5.341l-9.287 16.126h-.93l-7.608 13.334h-5.423Zm.486-29.46h6.11l7.163 12.565h.04l9.935 16.895h-6.151l-7.668-13.334h-.041l-9.388-16.126Zm55.919 86.907 9.995-29.52h6.009l9.975 29.52h-5.605l-6.859-21.387a33.426 33.426 0 0 1-.404-1.375 89.843 89.843 0 0 1-.304-1.214h-.101c-.094.391-.196.795-.303 1.214-.108.404-.243.863-.405 1.375l-6.738 21.387h-5.26Zm5.179-6.778 1.052-3.925h13.253l1.093 3.925H652.07Zm55.121-50.669v-29.46h10.542c2.927 0 5.166.634 6.717 1.902 1.552 1.268 2.327 3.163 2.327 5.685 0 1.66-.371 3.035-1.113 4.128-.728 1.079-1.659 1.821-2.792 2.226v.081c1.403.377 2.556 1.166 3.46 2.367.904 1.187 1.356 2.785 1.356 4.795 0 2.617-.85 4.654-2.55 6.111-1.686 1.443-3.972 2.165-6.859 2.165h-11.088Zm5.382-3.905h4.958c1.591 0 2.765-.425 3.52-1.275.756-.85 1.133-2.003 1.133-3.46 0-1.47-.377-2.637-1.133-3.5-.755-.877-1.929-1.316-3.52-1.316h-4.958v9.551Zm0-12.97h4.432c1.578 0 2.718-.384 3.419-1.153.701-.769 1.052-1.841 1.052-3.217 0-1.376-.351-2.422-1.052-3.136-.701-.715-1.841-1.08-3.419-1.093h-4.432v8.599Z" fill="#fff"/></g><path opacity=".2" d="M299.8 87.163c0-8.794 7.128-15.923 15.922-15.923s15.923 7.129 15.923 15.923v22.409c0 8.794-7.129 15.922-15.923 15.922s-15.922-7.128-15.922-15.922v-22.41Zm245.506.589c0-9.12 7.392-16.512 16.512-16.512 9.119 0 16.512 7.393 16.512 16.512v21.23c0 9.12-7.393 16.512-16.512 16.512-9.12 0-16.512-7.392-16.512-16.512v-21.23Z" stroke="#fff"/><path opacity=".2" d="M68.972 117.952c19.777-45.204 42.379-68.322 87.584-71.574 192.725-13.863 364.751-13.772 557.484 0 40.496 2.894 67.807 26.37 87.584 71.574 19.777 45.205 65.002 225.082 65.002 343.744 0 118.663-65.924 143.149-73.458 145.032-.936.234-1.915.541-2.937.861-1.5.469-3.091.967-4.766 1.305-.916.481-1.957.845-3.138 1.075-16.952 3.296-60.273-20.248-84.288-50.385-8.614-10.809-13.437-25.409-17.855-38.784-2.88-8.719-5.589-16.918-9.063-23.207-6.056-10.959-10.874-19.68-14.52-23.709-8.947-9.889-30.607-30.137-58.389-30.137H272.361c-27.782 0-49.442 20.248-58.389 30.137-3.646 4.029-8.464 12.75-14.52 23.709-3.145 5.692-6.623 13.91-10.444 22.936-6.876 16.246-14.861 35.111-24.008 46.589-24.015 30.137-59.802 46.147-76.754 42.851-1.187-.231-2.233-.598-3.152-1.083-1.662-.337-3.24-.831-4.73-1.297-1.021-.32-2-.627-2.937-.861-7.534-1.883-73.457-26.369-73.457-145.032 0-118.662 45.224-298.539 65.002-343.744Z" stroke="#fff" stroke-width="6"/><path d="M271.8 22.513c8.826 7.776 18.914 14.753 39.09 15.313a4390.08 4390.08 0 0 1 82.264-1.57c-77.252.891-155.073 4.259-236.598 10.123-28.33 2.038-47.783 11.878-63.226 30.067 16.906-30.95 37.951-47.157 73.565-49.859 15.482-1.174 29.658-2.834 43.581-4.463 16.248-1.902 32.151-3.764 49.382-4.767 2.846-.166 5.765.76 8.093 2.406l1.026.724c1.407.993 2.633 1.858 2.823 2.026ZM778.394 79.07c-18.073-32.748-41.891-50.01-74.694-52.483-15.521-1.17-29.731-2.828-43.689-4.458-16.221-1.894-32.101-3.747-49.304-4.748-2.842-.165-5.759.758-8.085 2.4l-1.001.707c-1.408.993-2.637 1.86-2.825 2.025-8.827 7.776-21.016 14.815-39.09 15.313a5222.115 5222.115 0 0 0-68.3-1.368c72.673 1.133 146.018 4.446 222.634 9.921 26.61 1.901 47.527 12.69 64.354 32.69Z" opacity=".2" stroke="#fff" stroke-width="2"/></svg>
